!!!COM: des Prez, Josquin
!!!CDT: ~1450-1521/08/27
!!!OTL@@FRA: Si j'ay perdu mon amy
!!!AGN: Chanson
!!!SCT: NJE 27.34
!!!SCA: New Josquin Edition 27.34
!!!voices: 3
**kern	**text	**kern	**text	**kern	**text
*staff3	*	*staff2	*	*staff1	*
*clefF4	*	*clefGv2	*	*clefGv2	*
*Ivox	*	*Ivox	*	*Ivox	*
*I"Bassus	*	*I"Tenor	*	*I"Superius	*
*I'B	*	*I'T	*	*I'S	*
*k[b-]	*	*k[b-]	*	*k[b-]	*
*M2/1	*	*M2/1	*	*M2/1	*
*met(C|)	*	*met(C|)	*	*met(C|)	*
=1-	=1-	=1-	=1-	=1-	=1-
2.BB-/	Si	1.B-	Si	0r	.
4C/	j'ay	.	.	.	.
2D\	per-	.	.	.	.
[2E-i\	-du	2B-\	j'ay	.	.
=2	=2	=2	=2	=2	=2
4E-\]	.	1B-	per-	0r	.
4D\	.	.	.	.	.
2.BB-/	.	.	.	.	.
.	.	1B-	-du	.	.
4C/	.	.	.	.	.
4D\	.	.	.	.	.
4E-i\	.	.	.	.	.
=3	=3	=3	=3	=3	=3
2F\	mon	2A/	mon	0r	.
1G	.	1B-	.	.	.
4F\	a-	4A/	a-	.	.
4E-i\	.	4G/	.	.	.
=4	=4	=4	=4	=4	=4
0D	-my,	1A	-my,	1.f	Si
.	.	2r	.	.	.
.	.	[2D/	mon	2f\	j'ay
=5	=5	=5	=5	=5	=5
2r	.	4D/]	.	1f	per-
.	.	4E/	.	.	.
2.D\	mon	4F/	.	.	.
.	.	4G/	.	.	.
.	.	2.A/	.	1f	-du
4E\	.	.	.	.	.
4F\	.	.	.	.	.
4G\	.	4B-\	.	.	.
=6	=6	=6	=6	=6	=6
2A\	.	2c\	.	2e\	mon
2D\	a-	1d	.	1f	.
1d	-my	.	.	.	.
.	.	4c\	a-	4e\	a-
.	.	4B-\	.	4d\	.
=7	=7	=7	=7	=7	=7
1r	.	0A	-my	[0e	-my
[1c	Je	.	.	.	.
=8	=8	=8	=8	=8	=8
2c\]	.	1.c	Je	0e]	.
2B-\	n'ay	.	.	.	.
2A\	point	.	.	.	.
2G\	cau-	2B-\	n'ay	.	.
=9	=9	=9	=9	=9	=9
2F\	-se	2A/	point	0r	.
2E\	de	2G/	cau-	.	.
2.D\	ri-	2.F/	-se	.	.
8C/L	.	4G/	de	.	.
8BB-/J	.	.	.	.	.
=10	=10	=10	=10	=10	=10
4AA/	.	2A/	ri-	0r	.
4GG/	.	.	.	.	.
1G	.	2B-\	.	.	.
.	.	1A	.	.	.
2F#i\	-re,	.	.	.	.
=11	=11	=11	=11	=11	=11
2.G\	je	0G	-re,	1.g	Je
4F\	n'ay	.	.	.	.
2E\	point	.	.	.	.
2D\	cau-	.	.	2f\	n'ay
=12	=12	=12	=12	=12	=12
2C/	-se	0r	.	2e\	point
2BB-/	de	.	.	2d\	cau-
2AA/	ri-	.	.	2.c\	-se
[2A\	.	.	.	.	.
.	.	.	.	4d\	de
=13	=13	=13	=13	=13	=13
4A\]	.	0r	.	2e\	ri-
4G\	.	.	.	.	.
1d	.	.	.	2f\	.
.	.	.	.	1e	.
2c#i\	-re,	.	.	.	.
=14	=14	=14	=14	=14	=14
1.d	je	1r	.	0d	-re,
.	.	[1d	je	.	.
2c\	n'ay	.	.	.	.
=15	=15	=15	=15	=15	=15
2B-\	point	2d\]	.	0r	.
2A\	cau-	2c\	n'ay	.	.
2G\	-se	2B-\	point	.	.
2F\	de	2A/	cau-	.	.
=16	=16	=16	=16	=16	=16
1.E	ri-	2.G/	-se	1.g	je
.	.	4F/	de	.	.
.	.	4G/	ri-	.	.
.	.	4A/	.	.	.
2D\	.	[2B-\	.	2f\	n'ay
=17	=17	=17	=17	=17	=17
2C/	.	4B-\]	.	1e	point
.	.	4A/	.	.	.
2AA/	.	1A	.	.	.
1BB-	.	.	.	1d	cau-
.	.	2G/	.	.	.
=18	=18	=18	=18	=18	=18
[0AA	-re.	2A/	-re,	2.c\	-se
.	.	4c\	ri-	.	.
.	.	4B-\	.	4d\	de
.	.	4A/	.	2e\	ri-
.	.	4G/	.	.	.
.	.	[2A/	.	2f\	.
=19	=19	=19	=19	=19	=19
0AA]	.	2A/]	.	4e\	.
.	.	.	.	4d\	.
.	.	2F/	.	1d	.
.	.	1E	.	.	.
.	.	.	.	2c#i\	.
=20	=20	=20	=20	=20	=20
1.BB-	Je	0D	-re.	0d	-re.
2BB-/	l'a-	.	.	.	.
=21	=21	=21	=21	=21	=21
2.BB-/	-voys	1.B-	Je	0r	.
4C/	.	.	.	.	.
2D\	sur	.	.	.	.
[2E-i\	tous	2B-\	l'a-	.	.
=22	=22	=22	=22	=22	=22
4E-\]	.	1B-	-voys	0r	.
4D\	.	.	.	.	.
2.BB-/	.	.	.	.	.
.	.	1B-	sur	.	.
4C/	.	.	.	.	.
4D\	.	.	.	.	.
4E-i\	.	.	.	.	.
=23	=23	=23	=23	=23	=23
2F\	.	2A/	tous	0r	.
1G	choi-	1B-	choi-	.	.
4F\	.	4A/	.	.	.
4E-i\	.	4G/	.	.	.
=24	=24	=24	=24	=24	=24
0D	-sy,	1A	-sy,	1.f	Je
.	.	2r	.	.	.
.	.	[2D/	choi-	2f\	l'a-
=25	=25	=25	=25	=25	=25
2r	.	4D/]	.	1f	-voys
.	.	4E/	.	.	.
2.D\	choi-	4F/	.	.	.
.	.	4G/	.	.	.
.	.	2.A/	.	1f	sur
4E\	.	.	.	.	.
4F\	.	.	.	.	.
4G\	.	4B-\	.	.	.
=26	=26	=26	=26	=26	=26
2A\	.	2c\	.	2e\	tous
2D\	.	1d	.	1f	choi-
1d	-sy,	.	.	.	.
.	.	4c\	.	4e\	.
.	.	4B-\	.	4d\	.
=27	=27	=27	=27	=27	=27
1r	.	0A	-sy,	[0e	-sy,
[1c	Vray	.	.	.	.
=28	=28	=28	=28	=28	=28
2c\]	.	1.c	Vray	0e]	.
2B-\	dieu	.	.	.	.
2A\	qu'en	.	.	.	.
2G\	vou-	2B-\	dieu	.	.
=29	=29	=29	=29	=29	=29
2F\	-lez	2A/	qu'en	0r	.
2E\	vous	2G/	vou-	.	.
2.D\	di-	2.F/	-lez	.	.
8C/L	.	4G/	vous	.	.
8BB-/J	.	.	.	.	.
=30	=30	=30	=30	=30	=30
4AA/	.	2A/	di-	0r	.
4GG/	.	.	.	.	.
1G	.	2B-\	.	.	.
.	.	1A	.	.	.
2F#i\	-re,	.	.	.	.
=31	=31	=31	=31	=31	=31
2.G\	vray	0G	-re,	1.g	Vray
4F\	dieu	.	.	.	.
2E\	qu'en	.	.	.	.
2D\	vou-	.	.	2f\	dieu
=32	=32	=32	=32	=32	=32
2C/	-les	0r	.	2e\	qu'en
2BB-/	vous	.	.	2d\	vou-
2AA/	di-	.	.	2.c\	-lez
[2A\	.	.	.	.	.
.	.	.	.	4d\	vous
=33	=33	=33	=33	=33	=33
4A\]	.	0r	.	2e\	di-
4G\	.	.	.	.	.
1d	.	.	.	2f\	.
.	.	.	.	1e	.
2c#i\	-re,	.	.	.	.
=34	=34	=34	=34	=34	=34
1.d	vray	1r	.	0d	-re,
.	.	[1d	Vray	.	.
2c\	dieu	.	.	.	.
=35	=35	=35	=35	=35	=35
2B-\	qu'en	2d\]	.	0r	.
2A\	vou-	2c\	dieu	.	.
2G\	-lez	2B-\	qu'en	.	.
2F\	vous	2A/	vou-	.	.
=36	=36	=36	=36	=36	=36
1.E	di-	2.G/	-lez	1.g	vray
.	.	4F/	vous	.	.
.	.	4G/	di-	.	.
.	.	4A/	.	.	.
2D\	.	[2B-\	.	2f\	dieu
=37	=37	=37	=37	=37	=37
2C/	.	4B-\]	.	1e	qu'en
.	.	4A/	.	.	.
2AA/	.	1A	.	.	.
1BB-	.	.	.	1d	vou-
.	.	2G/	.	.	.
=38	=38	=38	=38	=38	=38
[0AA	-re?	2A/	-re,	2.c\	-lez
.	.	4c\	qu'en	.	.
.	.	4B-\	vou-	4d\	vous
.	.	4A/	-lez	2e\	di-
.	.	4G/	vous	.	.
.	.	[2A/	di-	2f\	.
=39	=39	=39	=39	=39	=39
0AA]	.	2A/]	.	4e\	.
.	.	.	.	4d\	.
.	.	2F/	.	1d	.
.	.	1E	.	.	.
.	.	.	.	2c#i\	.
=40	=40	=40	=40	=40	=40
1r	.	2D/	-re,	2d\	-re,
.	.	4d\	qu'en	4f\	qu'en
.	.	4c\	vou-	4e\	vou-
[1D	Il	4B-\	-lez	4d\	-lez
.	.	4A/	vous	4c\	vous
.	.	[2B-\	di-	[2d\	di-
=41	=41	=41	=41	=41	=41
1D]	.	2B-\]	.	2d\]	.
.	.	4A/	.	4c\	.
.	.	4G/	.	4B-\	.
1D	m'a	4F#i/	.	1A	-re,
.	.	4G/	.	.	.
.	.	4A/	.	.	.
.	.	4F#i/	.	.	.
=42	=42	=42	=42	=42	=42
1.E	voyt	1G	-re?	1.G	qu'en
.	.	1r	.	.	.
2D\	ju-	.	.	2F/	vou-
=43	=43	=43	=43	=43	=43
2C/	-r&eacute;	1G	Il	2E/	-lez
4BB-/	.	.	.	4D/	vous
4AA/	.	.	.	4C/	.
1BB-	sa	1G	m'a	1D	di-
=44	=44	=44	=44	=44	=44
[0AA	foy	1.A	voyt	1E	-re?
.	.	.	.	1r	.
.	.	2G/	ju-	.	.
=45	=45	=45	=45	=45	=45
0AA]	.	2F/	-r&eacute;	1c	Il
.	.	4E/	.	.	.
.	.	4D/	.	.	.
.	.	1E	.	1c	m'a
=46	=46	=46	=46	=46	=46
1r	.	4D/	sa	1.d	voyt
.	.	4C/	.	.	.
.	.	4D/	.	.	.
.	.	4E/	.	.	.
[1D	De	4F/	.	.	.
.	.	4G/	.	.	.
.	.	[2A/	.	2c\	ju-
=47	=47	=47	=47	=47	=47
1D]	.	4A/]	.	2B-\	-r&eacute;
.	.	4G/	.	.	.
.	.	1G	.	4A/	.
.	.	.	.	4G/	.
1D	n'ay-	.	.	1A	sa
.	.	2F#i/	.	.	.
=48	=48	=48	=48	=48	=48
1.E	-mer	1G	foy	1.G	foy,
.	.	1r	.	.	.
2D\	aul-	.	.	2F/	ju-
=49	=49	=49	=49	=49	=49
2C/	-tre	1G	De	2E/	-r&eacute;
4BB-/	.	.	.	4D/	.
4AA/	.	.	.	4C/	.
1BB-	que	1G	n'ay-	1D	sa
=50	=50	=50	=50	=50	=50
0AA	moy,	1.A	-mer	1E	foy
.	.	.	.	1r	.
.	.	2G/	aul-	.	.
=51	=51	=51	=51	=51	=51
1r	.	2F/	-tre	1c	De
.	.	4E/	.	.	.
.	.	4D/	.	.	.
1AA	aul-	1E	que	1c	n'ay-
=52	=52	=52	=52	=52	=52
4BB-/	.	[0D	moy,	1.d	-mer
4C/	.	.	.	.	.
4D\	.	.	.	.	.
4E\	.	.	.	.	.
4F\	.	.	.	.	.
4G\	.	.	.	.	.
[2A\	.	.	.	2c\	aul-
=53	=53	=53	=53	=53	=53
4A\]	.	0D]	.	2B-\	-tre
4G\	.	.	.	.	.
1G	-tre	.	.	4A/	.
.	.	.	.	4G/	.
.	.	.	.	1A	que
2F#i\	que	.	.	.	.
=54	=54	=54	=54	=54	=54
2G\	moy	2.B-\	Tout	1G	moy
4GG/	Tout	.	.	.	.
4AA/	au	4B-\	au	.	.
4BB-/	long	2B-\	long	1d	.
4C/	.	.	.	.	.
4D\	du	2B-\	du	.	.
4E\	.	.	.	.	.
=55	=55	=55	=55	=55	=55
2F\	moys	2A/	moys	0r	.
1G	.	1B-	.	.	.
4F\	de	4A/	de	.	.
4E\	.	4G/	.	.	.
=56	=56	=56	=56	=56	=56
2.D\	may,	2A/	may,	2.f\	Tout
.	.	4D/	tout	.	.
4D\	au	4E/	au	4f\	au
2D\	long	4F/	long	2f\	long
.	.	4G/	.	.	.
2D\	du	4A/	de	2f\	au
.	.	4B-\	.	.	.
=57	=57	=57	=57	=57	=57
2C/	moys	2c\	moys	2e\	moys
1D	.	2A/	de	1f	.
.	.	1d	may.	.	.
4C/	de	.	.	4e\	de
4BB-/	.	.	.	4d\	.
=58	=58	=58	=58	=58	=58
2AA/	may.	4c\	Qu'en	0e	may.
.	.	4B-\	v.-	.	.
4c\	Qu'en	4A/	-l.	.	.
4B-\	v.-	4G/	v.	.	.
4A\	-l.	4c\	q.	.	.
4G\	v.	4B-\	v.-	.	.
4c\	q.	4A/	-l.	.	.
4B-\	v.-	4G/	v	.	.
=59	=59	=59	=59	=59	=59
4A\	-l.	4F/	q.	0r	.
4G\	v.	4G/	v.-	.	.
4F\	q.	4A/	-l.	.	.
4G\	v.-	4B-\	v.	.	.
4A\	-l.	2A/	di-	.	.
4F\	v.	.	.	.	.
2G\	di-	2G/	-re?	.	.
=60	=60	=60	=z0	=60	=60
2C/	-re?	0r	.	4g\	Qu'en
.	.	.	.	4f\	v.-
4G\	q.	.	.	4e\	-l.
4F\	v.-	.	.	4d\	v.
4E\	-l.	.	.	4g\	q.
4D\	v.	.	.	4f\	v.-
4G\	q.	.	.	4e\	-l.
4F\	v.-	.	.	4d\	v
=61	=61	=61	=61	=61	=61
4E\	-l.	0r	.	4c\	q.
4D\	v.	.	.	4d\	v.-
4C/	q.	.	.	4e\	-l.
4D\	v.-	.	.	4f\	v.
4E\	-l.	.	.	2e\	di-
4C/	v.	.	.	.	.
2D\	di-	.	.	2d\	-re?
=62	=62	=62	=62	=62	=62
1GG	re?	2.B-\	Mor-	1r	.
.	.	4B-\	-te	.	.
2.D\	Mor-	2B-\	suis	2.f\	Mor-
.	.	2B-\	si	.	.
4D\	-te	.	.	4f\	-te
=63	=63	=63	=63	=63	=63
2D\	suis	2B-\	je	2f\	suis
2D\	si	2B-\	ne	2f\	si
2D\	je	2A/	l'ay!	2f\	je
2D\	ne	2B-\	Et	2f\	ne
=64	=64	=64	=64	=64	=64
2C/	l'ay!	4c\	qu'en	1e	l'ay!
.	.	4B-\	v.-	.	.
4r	.	4A/	-l.	.	.
4C/	Et	4G/	v.	.	.
4D\	qu'en	2F/	donc,	1r	.
4C/	v.-	.	.	.	.
4BB-/	-l.	4G/	q.	.	.
4AA/	v.	4A/	v.-	.	.
=65	=65	=65	=65	=65	=65
2GG/	donc,	4B-\	-l.	2r	.
.	.	4G/	v.	.	.
4r	.	2A/	di-	2f\	Et
4D\	et	.	.	.	.
4E-i\	q.	2G/	-re?	4g\	qu'en
4D\	v.-	.	.	4f\	v.-
4C/	-l.	4r	.	4e\	-l.
4BB-/	v.	4G/	et	4d\	v.
=66	=66	=66	=66	=66	=66
2AA/	donc	4A/	q.	2c\	donc,
.	.	4G/	v.-	.	.
1BB-	di-	4F/	-l.	4d\	q.
.	.	4E/	v.	4e\	v.-
.	.	2D/	donc,	4f\	-l.
.	.	.	.	4d\	v.
2AA/	-re,	4r	.	2e\	di-
.	.	4c\	et	.	.
=67	=67	=67	=67	=67	=67
2r	.	4d\	q.	2d\	-re,
.	.	4c\	v.-	.	.
2D\	et	4B-\	-l.	4r	.
.	.	4A/	v.	4f\	et
4E-i\	q.	2G/	donc,	4g\	q.
4D\	v.-	.	.	4f\	v.-
4C/	-l.	4r	.	4e\	-l.
4BB-/	v.	4G/	et	4d\	v.
=68	=68	=68	=68	=68	=68
2AA/	donc	4A/	q.	2c\	donc
.	.	4G/	v.-	.	.
1BB-	di-	4F/	-l.	2d\	di-
.	.	4E/	v.	.	.
.	.	2D/	donc	2d\	-re
2AA/	-re,	2E/	di-	2c#i\	de
=69	=69	=69	=69	=69	=69
4D\	q.	2D/	-re,	2d\	moy,
4D\	v.-	.	.	.	.
4D\	-l.	4r	.	4r	.
4D\	v.,	4d\	et	4B-\	et
4C/	q.	4e-i\	q.	4c\	q.
4C/	v.-	4d\	v.-	4B-\	v.-
4C/	-l.	4c\	-l.	4A/	-l.
4C/	v.	4B-\	v.	4G/	v.
=70	=70	=70	=70	=70	=70
2D\	donc	2A/	donc	2F/	donc
2BB-/	di-	2G/	di-	2G/	di-
2C/	-re	2A/	-re	2G/	-re
2D\	de	2A/	de	2F#i/	de
=71	=71	=71	=71	=71	=71
0GG/l	moy?	0G/l	moy?	0G/l	moy?
==	==	==	==	==	==
*-	*-	*-	*-	*-	*-
!!!RDF**kern: l=long note in original notation
!!!RDF**kern: i=editorial accidental
!!!SMS: ParisBNF 1597: anon.
!!!SMS: SGallS 461: Josquin
!!!SMS: Antico 1536: Josquin
!!!SMS: LeRoy 1578: Josquin
!!!ENC: Jesse Rodin; Victoria Chang 2011/07/26/
!!!END: 2011/08/09/
!!!EED: Jesse Rodin
!!!EEV: 2011/08/09/
!!attribution-level@Jos: 2 (provisionally attributable [parentheses checkmark])
!!!ONB: Translated from MusicXML and edited on 2011/08/09/ by Craig Sapp
!!muse2ps: C^@{COM}\n@{SCT}^i2I150v90,90,120c105z18l2700t130
